X: 1
T:Merci Baschtarz - bourree
C:Roland Knogler
Z:abc transcription Simon Wascher
N:please mail errors to: simon.wascher@chello.at
M:2/4
L:1/8
K:Dm
D2 FA|^G3A|B3/2A/2 GF|A/2G/2F EF|
D2 FA|^G3A|B3/2A/2 GF|E4:|
|:FD2F|E3/2F/2 DF|A/2G/2F EF|EF D2|
FD2F|E3/2F/2 DF|A/2G/2F EF|D4:|
